src/resources/images/icons/bell-on-hover.svg

<svg width="40" height="41" viewBox="0 0 40 41" fill="none" xmlns="http://www.w3.org/2000/svg">
<rect x="0.5" y="1" width="39" height="39" rx="3.5" fill="#2271B1" fill-opacity="0.1"/>
<rect x="0.5" y="1" width="39" height="39" rx="3.5" stroke="#2271B1"/>
<rect width="24" height="24" transform="translate(8 8.5)" fill="#E9F1F7"/>
<path d="M19.886 30.0464C19.2476 30.0464 18.7003 29.8147 18.2443 29.3513C17.7883 28.8878 17.5603 28.3318 17.5603 27.683H22.2117C22.2117 28.3318 21.9837 28.8878 21.5277 29.3513C21.0717 29.8147 20.5244 30.0464 19.886 30.0464ZM24.5375 20.3147C24.5983 21.0252 24.8415 21.674 25.2671 22.261C25.7231 22.848 26.3008 23.2651 27 23.5122V26.4781H13V23.5122C13.6384 23.2033 14.1705 22.7553 14.5961 22.1683C15.0217 21.5505 15.2649 20.8862 15.3257 20.1757V17.5805C15.3257 16.4374 15.645 15.4488 16.2834 14.6147C16.9522 13.7496 17.8035 13.1935 18.8371 12.9464C18.6851 12.7919 18.6091 12.5911 18.6091 12.3439C18.6091 12.0041 18.7307 11.7106 18.9739 11.4635C19.2172 11.1854 19.506 11.0464 19.8404 11.0464C20.2052 11.0464 20.5244 11.1854 20.798 11.4635C21.0717 11.7106 21.2389 12.0041 21.2997 12.3439C21.2389 12.4057 21.1933 12.5139 21.1629 12.6683C21.1325 12.7919 21.1021 12.8846 21.0717 12.9464C22.1053 13.2553 22.9414 13.8423 23.5798 14.7074C24.2182 15.5415 24.5375 16.4992 24.5375 17.5805V20.3147Z" fill="#2271B1"/>
<rect x="19.5" y="11" width="10" height="10" rx="5" fill="#D63638"/>
<rect x="19.5" y="11" width="10" height="10" rx="5" stroke="#E9F1F7" stroke-width="2"/>
</svg>

<svg xmlns="http://www.w3.org/2000/svg" fill="none" viewBox="0 0 40 41"><rect width="39" height="39" x=".5" y="1" fill="#2271B1" fill-opacity=".1" rx="3.5"/><rect width="39" height="39" x=".5" y="1" stroke="#2271B1" rx="3.5"/><path fill="#E9F1F7" d="M8 8.5h24v24H8z"/><path fill="#2271B1" d="M19.886 30.046a2.221 2.221 0 0 1-1.642-.695 2.294 2.294 0 0 1-.684-1.668h4.652c0 .649-.228 1.205-.684 1.668a2.221 2.221 0 0 1-1.642.695Zm4.652-9.731c.06.71.303 1.359.73 1.946A3.722 3.722 0 0 0 27 23.512v2.966H13v-2.966a4.214 4.214 0 0 0 1.596-1.344 4.078 4.078 0 0 0 .73-1.992V17.58c0-1.144.319-2.132.957-2.966.67-.865 1.52-1.421 2.554-1.669a.822.822 0 0 1-.228-.602c0-.34.122-.633.365-.88.243-.279.532-.418.866-.418.365 0 .684.14.958.418.274.247.44.54.502.88-.061.062-.107.17-.137.324-.03.124-.06.217-.091.278a4.716 4.716 0 0 1 2.508 1.761c.638.834.958 1.792.958 2.873v2.735Z"/><rect width="10" height="10" x="19.5" y="11" fill="#D63638" rx="5"/><rect width="10" height="10" x="19.5" y="11" stroke="#E9F1F7" stroke-width="2" rx="5"/></svg>
